X:1
T:Title
%%score { 1 | 2 }
L:1/8
M:2/4
K:Eb
V:1 treble nm="Grand Piano"
V:2 bass 
V:1
 z2 z[Q:1/4=94] E | GG AG | [EG] [DF]2 [DF] | [FA][FA] [GB][FA] | G3 G | BG FE | %6
 [A,CF] [CFA]2 [CFA] | [B,EG]F ED |[M:3/8] E3 |[M:1/8] E |[M:2/4] GG AA |[M:3/8] G3 |[M:1/8] G | %13
[M:2/4] [GB][GB] [FA][EG] | [DF]3 [DF] | [FA][FA] [EG][DF] | [EG] [GB]2 E | G[CF] ED |[M:3/8] E3 |] %19
V:2
 z2 z [E,G,] | [E,B,E][E,B,E] [E,CE][E,B,E] | [B,,B,] [B,,B,]2 [B,,B,] | %3
 [B,,B,][B,,B,] [B,,B,][B,,B,] | [E,B,E]3 [E,B,E] | [E,G,E][E,B,E] [E,A,E][E,G,] | A,, A,,2 A,, | %7
 B,,[B,,A,B,] [B,,G,B,][B,,F,B,] |[M:3/8] [E,G,B,]3 |[M:1/8] [E,G,] | %10
[M:2/4] [E,B,E][E,B,E] [E,CE][E,CE] |[M:3/8] [E,B,E]3 |[M:1/8] [E,B,E] | %13
[M:2/4] [E,E][E,B,] [D,B,][E,B,] | [B,,B,]3 [B,,B,] | [B,,B,][B,,B,] [B,,B,][B,,B,] | %16
 [E,B,] [E,E]2 [E,G,] | [E,B,E][A,,A,] [B,,G,B,][B,,F,B,] |[M:3/8] [E,G,B,]3 |] %19

